X: 9
T: Bądź zdrowa
C: Bolesław Jan Ćwiklicz
%%abc-version 2.0
%%abcx-abcm2ps-target-version 5.9.1 (29 Sep 2008)
%%abc-creator hum2abc beta
%%abcx-conversion-date 2021/10/04 07:38:42
%%abc-edited-by Marcin Jachim
%%abc-edited-by Kamil Watkowski
%%abcx-initial-encoding-date 2021-08-11
%%humdrum-veritas 1200434619
%%humdrum-veritas-data 2691308049
%%linebreak <none>
%%barnumbers 0
L: 1/8
M: 3/4
N: Derived from pl-kozmzk--mzk-m-137--007_cwiklicz-boleslaw-jan-badz-zdrowa.krn
%%staves {1 2}
V: 1 clef=treble
V: 2 clef=bass
K: C
[V:1] z fa2e2 & z de2B2 | 
[V:2] z A,A,2^G,2 & z D,^C,2E,2 | 
[V:1] de2<g2f & B^c2<e2d | 
[V:2] A,A,A,2A,2 & F,E, D,^C,D,2 | 
[V:1] e4d2 & B2^c2d2 | 
[V:2] ^G,2A,2A,2 & E,2A,,2F,E, | 
[V:1] f2>e2dB & d2>=c2AB | 
[V:2] A,2G,2F,G, & D,C, B,,C, D,G, | 
[V:1] cde2A2 & ABB2A2 | 
[V:2] A,A,^G,2E,2 & F,F, E,D,C,2 | 
[V:1] f2e3d & d2c3B | 
[V:2] A,2^G,3A, & D,2E,3F, | 
[V:1] a2g3f & d4B2 | 
[V:2] B,4G,2 & =G,F, E,F, E,D, | 
[V:1] ecA4 & cGF2E2 | 
[V:2] G,E,D,2C,2 & C,2F,,G,,A,,2 | 
[V:1] z ce2A2 & z AB2A2 | 
[V:2] z A,^G,2E,F, & z F, E,D, C,D, | 
[V:1] z ce2B2 & z A^G2AG | 
[V:2] E,2E,2F,2 & A,,2B,,C,D,2 | 
[V:1] AB cB dc & AAA2A2 | 
[V:2] E,F,=G,2F,2 & C,D,E,2D,2 | 
[V:1] A6- & A6- | 
[V:2] E,F,2<G,2F, & C,D,2<E,2D, | 
[V:1] A4c2 & A4A2 | 
[V:2] E,4A,2 & A,,4F,2 | 
[V:1] e4A2- & B4A2 | 
[V:2] ^G,4E,2 & E,2D,2C,2 | 
[V:1] A4z2 & F2E2z2 |]  
[V:2] D,2C,2z2 & F,,G,,A,,2z2 |]  


